dist/img/svg/ic_locked.svg

<svg width="32" height="31" viewBox="0 0 32 31" fill="none" xmlns="http://www.w3.org/2000/svg">
<g filter="url(#filter0_d)">
<circle cx="16" cy="11.5" r="8.49999" fill="#858585"/>
<circle cx="16" cy="11.5" r="9.99999" stroke="white" stroke-width="3"/>
</g>
<path d="M14.221 9.4334C13.8268 9.60014 13.4622 9.81917 13.1315 10.0862V8.19839C13.1315 6.62848 14.4089 5.35107 15.9788 5.35107H16.0226C17.5911 5.35107 18.8685 6.62848 18.8685 8.19839V10.0862C18.5379 9.81918 18.1733 9.60016 17.7791 9.4334C17.6731 9.38818 17.5643 9.34721 17.4555 9.31047V8.19839C17.4555 7.40708 16.8125 6.76413 16.0212 6.76413H15.9774C15.1861 6.76413 14.5432 7.40708 14.5432 8.19839V9.31188C14.4358 9.34721 14.327 9.38818 14.221 9.4334Z" fill="white"/>
<path d="M20.0046 13.6443C20.0046 15.8557 18.2115 17.6489 16 17.6489C13.7886 17.6489 11.9954 15.8571 11.9954 13.6443C11.9954 12.5577 12.4292 11.5714 13.1315 10.8493C13.5272 10.4437 14.0076 10.1216 14.5446 9.91103C14.9953 9.73439 15.4871 9.63831 16 9.63831C16.513 9.63831 17.0047 9.73439 17.4555 9.91103C17.9924 10.1202 18.4729 10.4423 18.8685 10.8493C19.5722 11.5714 20.0046 12.5577 20.0046 13.6443ZM17.0316 12.836C17.0174 12.2892 16.5723 11.8441 16.0255 11.8314C15.4447 11.8172 14.9685 12.285 14.9685 12.8629C14.9685 12.9237 14.9742 12.983 14.9841 13.0395C15.035 13.332 15.2087 13.5835 15.4518 13.7362C15.5521 13.7998 15.603 13.9184 15.5775 14.0329L15.2709 15.4869C15.2525 15.5745 15.3189 15.6579 15.4094 15.6579H16.5907C16.6811 15.6579 16.7476 15.576 16.7292 15.4869L16.4225 14.0329C16.3985 13.917 16.448 13.7983 16.5483 13.7347C16.7913 13.5821 16.9651 13.332 17.016 13.0381C17.0273 12.9731 17.033 12.9053 17.0316 12.836Z" fill="white"/>
<defs>
<filter id="filter0_d" x="0.5" y="0" width="31" height="31" filterUnits="userSpaceOnUse" color-interpolation-filters="sRGB">
<feFlood flood-opacity="0" result="BackgroundImageFix"/>
<feColorMatrix in="SourceAlpha" type="matrix" values="0 0 0 0 0 0 0 0 0 0 0 0 0 0 0 0 0 0 127 0"/>
<feOffset dy="4"/>
<feGaussianBlur stdDeviation="2"/>
<feColorMatrix type="matrix" values="0 0 0 0 1 0 0 0 0 1 0 0 0 0 1 0 0 0 0.8 0"/>
<feBlend mode="overlay" in2="BackgroundImageFix" result="effect1_dropShadow"/>
<feBlend mode="normal" in="SourceGraphic" in2="effect1_dropShadow" result="shape"/>
</filter>
</defs>
</svg>

<svg width="32" height="31" viewBox="0 0 32 31" fill="none" xmlns="http://www.w3.org/2000/svg"><g filter="url(#filter0_d)"><circle cx="16" cy="11.5" r="8.5" fill="#858585"/><circle cx="16" cy="11.5" r="10" stroke="#fff" stroke-width="3"/></g><path d="M14.221 9.433a4.554 4.554 0 00-1.09.653V8.198a2.85 2.85 0 012.848-2.847h.044a2.85 2.85 0 012.846 2.847v1.888a4.552 4.552 0 00-1.413-.776V8.198c0-.79-.643-1.434-1.435-1.434h-.044c-.79 0-1.434.643-1.434 1.434v1.114a4.057 4.057 0 00-.322.121z" fill="#fff"/><path d="M20.005 13.644a4.005 4.005 0 11-8.01 0 4.005 4.005 0 018.01 0zm-2.973-.808a1.032 1.032 0 10-1.58.9.28.28 0 01.126.297l-.307 1.454a.142.142 0 00.138.17h1.182a.14.14 0 00.138-.17l-.306-1.454a.284.284 0 01.125-.298 1.03 1.03 0 00.484-.899z" fill="#fff"/><defs><filter id="filter0_d" x=".5" y="0" width="31" height="31" filterUnits="userSpaceOnUse" color-interpolation-filters="sRGB"><feFlood flood-opacity="0" result="BackgroundImageFix"/><feColorMatrix in="SourceAlpha" values="0 0 0 0 0 0 0 0 0 0 0 0 0 0 0 0 0 0 127 0"/><feOffset dy="4"/><feGaussianBlur stdDeviation="2"/><feColorMatrix values="0 0 0 0 1 0 0 0 0 1 0 0 0 0 1 0 0 0 0.8 0"/><feBlend mode="overlay" in2="BackgroundImageFix" result="effect1_dropShadow"/><feBlend in="SourceGraphic" in2="effect1_dropShadow" result="shape"/></filter></defs></svg>
